X:1
T:Alleluia Dulce Carmen, 87.87.87
T:Alleluia Dulce Carmen, 87.87.87
T:Edward John Hopkins, 1872
T:Public Domain Courtesy of the Cyber Hymnal™
C:Edward John Hopkins, 1872
Z:Public Domain
Z:Courtesy of the Cyber Hymnal™
%%score ( 1 2 ) ( 3 4 )
L:1/8
Q:1/4=107
M:4/4
K:A
V:1 treble 
V:2 treble 
V:3 bass 
V:4 bass 
V:1
 [CA][CA] | [CG]2 [CA]2 [Dd]2 [Ec]2 | [Ec]4 [EB]2 [Ec][EB] | [EA]2 [EA]2 [DG]2 [CF]2 | %4
 [B,E]6 [DE][DF] | [CE]2 [CF]2 [^DF]2 [EG]2 | [^DA]2 [Ec]2 [FB]2 [DA]2 | [EG]3 [EG] [CA]2 [^DF]2 | %8
 E6 [B,E][B,E] | E2 [EA]2 [DB]2 [Cc]2 | [Fc]4 F2 [EF][EF] | [Dd]2 [Dc]2 [DB]3 [Dc] | [CA]6 |] %13
V:2
 x2 | x8 | x8 | x8 | x8 | x8 | x8 | x8 | E6 x2 | E2 x6 | x4 F2 x2 | x8 | x6 |] %13
V:3
 [A,,E,][A,,E,] | [A,,E,]2 [A,,E,]2 [A,,F,]2 [A,,E,]2 | [D,G,]4 [D,G,]2 [D,G,][D,G,] | %3
 [C,A,]2 [C,E,]2 [B,,E,]2 [A,,E,]2 | [G,,E,]6 [G,,B,][G,,B,] | [A,,C]2 [A,C]2 [A,B,]2 [G,B,]2 | %6
 [F,A,]2 [E,A,]2 [^D,F,]2 [B,,F,]2 | [C,E,]3 [C,G,] [A,,F,]2 [B,,A,]2 | [E,G,]6 [D,G,][D,G,] | %9
 [C,A,]2 [C,E,]2 [B,,G,]2 [A,,A,]2 | (A,2 ^A,2) [D,B,]2 [C,A,][C,A,] | %11
 [B,,B,]2 [B,,F,]2 [E,G,]3 [E,G,] | [A,,A,]6 |] %13
V:4
 x2 | x8 | x8 | x8 | x8 | x8 | x8 | x8 | x8 | x8 | D,4 x4 | x8 | x6 |] %13

